X:14
T:The Idiot
T:Dance: The Drunken Idiot
R:hornpipe
H:Dance composed by Karin Howe in the style of Red Stags
C:Stan Rogers.
M:4/4
L:1/8
K:G
G/2A/2 | Bd dc/2B/2 ((3AGA) BD | EGGF E3 D | EG GF/2E/2 DG G>A |
|1 ((3Bcd) cB A3 :|2 ((3Bcd) BA G3 |] G | ee ed/2c/2 dd d>c |
((3BAG) GA B3 G | ee ed/2c/2 dd d>c | ((3BAG) cB A3 G/2A/2 |
Bd dc/2B/2 ((3AGA) BD | EGGF E3 D | EG GF/2E/2 DG G>A | ((3Bcd) BA G3 ||
